Source/HTML/PIC/down-arrow.svg

<svg width="18" height="18" viewBox="0 0 18 18" fill="none" xmlns="http://www.w3.org/2000/svg">
<path d="M9 13L8.29289 13.7071L9 14.4142L9.70711 13.7071L9 13ZM16.2929 4.29289L8.29289 12.2929L9.70711 13.7071L17.7071 5.70711L16.2929 4.29289ZM9.70711 12.2929L1.70711 4.29289L0.292893 5.70711L8.29289 13.7071L9.70711 12.2929Z" fill="#445368"/>
</svg>

<svg width="18" height="18" fill="none" xmlns="http://www.w3.org/2000/svg"><path d="M9 13l-.707.707.707.707.707-.707L9 13zm7.293-8.707l-8 8 1.414 1.414 8-8-1.414-1.414zm-6.586 8l-8-8L.293 5.707l8 8 1.414-1.414z" fill="#445368"/></svg>
